X: 41665
T: Upperchurch, The
R: polka
M: 2/4
K: Gmajor
|:GB/d/ ed|B2 BA|GB/d/ ed|A2 AG|
FD FA|f2 fe|1 d^c/d/ ed|B2 BA:|2 d^c/d/ ef|g2 gf||
|:ga/g/ fe|dB Bd|ga/g/ fe|d2 d2|
eA eA|f2 fe|1 d^c/d/ ed|B2 Bd:|2 d^c/d/ ef|g2 g2||

